X: 43167
T: Winter Solstice
R: reel
M: 4/4
K: Bminor
|:B2Bc d2de|f~B3 gfed|c~A3 FAcA|dBcA BAFA|
BAFA Bcde|f~B3 AB/c/de|fbgf edcA|1 Bcdc B3A:|2 Bcdc B3c||
|:d2de faab|afec fecd|BABc dB/c/de|fgef decd|
BAFA Bcde|cede fefa|bfae fecd|1 fedc B3c:|2 fedc B3A||

